X:2
T:Dream Valley of Glendaruel
T:Seconds
R:March
C:John MacLellan
O:Dunoon, UK
M:3/4
L:1/8
Q:"80 bpm"
K:D
[|: {g}A>B f2 {e}f2 | {g}d2 f2 {e}a2 | {g}e>f e4 | {g}d4 c2 |
{g}d2 f2 a2 | d>e de {g}f2 | f {gf}g2 g2 | {a}a>g g2 f2 :|]
[|: {g}f>g f4 | e2 d2 a2 | a2 f2 f2 | g2 e2 e2 |
{g}a2 f2 a2 | f2 af {g}f2 | f2 {gf}g2 g2 | {a}a>g f4 :|]

